X: 1
T:Diplodocus, The
M:6/8
L:1/8
C:Liz Carroll
S:From Trian: Trian
R:Jig
K:AMix
AB |: cAA edB | cAA ABc | dff ~g3 | aee fed |
!cAA A2G | EAA AGE | DFF G2A |1 BAA A2B :|2 BAA A2d ||
!efe e2d | cAB AGE | ~G3 GEF | GAG FDD |
!efe e2d | cAB AGE | DFF G2A | BAA A2d |
!efe e2d | cAB AGE | ~g3 gef | gag fdd |
!efe e2d | cAB AGE | DFF G2A | BAA Afg |:
!aAA Aaf | ~g3 efg | ~f3 def | gfg efg |
!aAA Aaf | ~g3 efg | fed e2/f2/ed |1 cAG Afg :|2 cAA A2B ||!
!"var. on 2nd & 3rd measure of C part" ~g3 ege | ~G3 GBd ||
